X: 569
T: Tzadik Katamar
O: Israel
M: C|
L: 1/4
K: D
V:1  brk=2
D | "D"F<AA>B | "Bm"F<ED>F | "Em7"GGG<A | "A"E4 | "D"F<AA>B | "Fm"c<FF>F |
 "G"GAB<c | "A"A4 | "G"BcdB | "Fm"c<Ac>F | "Em"GAB<c | "D"A4 |
 "Em"EFGE | "Fm"F<A c2 | "G"BcdB | "A7"c3 A || "D"d3 d | "F7"c3 c |
 "G"BBB<c | "D"A2 "Bm"F2 | "G"GGGA | "D"F<E "Bm"D>F | "Em"GGGE | "A"A<B c>A |
 "D"d3 d | "F7"c3 c | "G"BBBc | "D"A2 "Bm"F2 | "Em7"GGGA | "D"F<E "Bm"D>F |\
      "Em"EG "A"B<c | "D"d4 ||
V:2 % gch=0
D | "D"D<FF>F | "Bm"F<GF>F | "Em7"E2B,2 | "A"C> A,B,C |\
   "D"D<FF>F | "Fm"F<CC>C |
"G"D4 | "A"C>A,B,C | "G"GAAG | "Fm"F<AA>A | "Em"GAAG | "D"F4 |
"Em"B2GE | "Fm"A2F2 | "G"D2G2 | "A7"E2FE || "D"F4 | "F7"E4 |
"G"D2CB, | "D"A,2 "Bm"D2 | "G"B,D2D | "D"A, "     Bm"D2D |\
   "Em"B,D2D | "A"C2 DE |
"D"F4 | "F7"E4 | "G"D2CB, | "D"A,2 "Bm"D2 | "Em7"B,D2D |\
   "D"A, "Bm"D2D |"Em"B,2 "A"CE | "D"F4 ||
